darktable/Rizzle Dizzle.xmp
<x:xmpmeta xmlns:x="adobe:ns:meta/" x:xmptk="Adobe XMP Core 5.6-c140 79.160451, 2017/05/06-01:08:21        ">
 <rdf:RDF xmlns:rdf="http://www.w3.org/1999/02/22-rdf-syntax-ns#">
  <rdf:Description rdf:about=""
    xmlns:crs="http://ns.adobe.com/camera-raw-settings/1.0/"
   crs:PresetType="Normal"
   crs:Cluster=""
   crs:UUID="DA4D00DA36294B6A91D46B71D9417A83"
   crs:SupportsAmount="False"
   crs:SupportsColor="True"
   crs:SupportsMonochrome="True"
   crs:SupportsHighDynamicRange="True"
   crs:SupportsNormalDynamicRange="True"
   crs:SupportsSceneReferred="True"
   crs:SupportsOutputReferred="True"
   crs:CameraModelRestriction=""
   crs:Copyright=""
   crs:ContactInfo=""
   crs:Version="11.3"
   crs:ProcessVersion="6.7"
   crs:Saturation="-6"
   crs:ShadowTint="0"
   crs:RedHue="+15"
   crs:RedSaturation="+15"
   crs:GreenHue="0"
   crs:GreenSaturation="0"
   crs:BlueHue="-15"
   crs:BlueSaturation="-10"
   crs:Vibrance="+5"
   crs:HueAdjustmentRed="+10"
   crs:HueAdjustmentOrange="-10"
   crs:HueAdjustmentYellow="0"
   crs:HueAdjustmentGreen="+20"
   crs:HueAdjustmentAqua="0"
   crs:HueAdjustmentBlue="0"
   crs:HueAdjustmentPurple="0"
   crs:HueAdjustmentMagenta="0"
   crs:SaturationAdjustmentRed="-40"
   crs:SaturationAdjustmentOrange="-15"
   crs:SaturationAdjustmentYellow="-10"
   crs:SaturationAdjustmentGreen="-40"
   crs:SaturationAdjustmentAqua="-5"
   crs:SaturationAdjustmentBlue="-20"
   crs:SaturationAdjustmentPurple="-15"
   crs:SaturationAdjustmentMagenta="-15"
   crs:LuminanceAdjustmentRed="-10"
   crs:LuminanceAdjustmentOrange="+10"
   crs:LuminanceAdjustmentYellow="+15"
   crs:LuminanceAdjustmentGreen="+5"
   crs:LuminanceAdjustmentAqua="0"
   crs:LuminanceAdjustmentBlue="+10"
   crs:LuminanceAdjustmentPurple="0"
   crs:LuminanceAdjustmentMagenta="0"
   crs:SplitToningShadowHue="0"
   crs:SplitToningShadowSaturation="0"
   crs:SplitToningHighlightHue="0"
   crs:SplitToningHighlightSaturation="0"
   crs:SplitToningBalance="0"
   crs:ParametricShadows="+20"
   crs:ParametricDarks="+20"
   crs:ParametricLights="-5"
   crs:ParametricHighlights="-5"
   crs:ParametricShadowSplit="25"
   crs:ParametricMidtoneSplit="50"
   crs:ParametricHighlightSplit="75"
   crs:Contrast2012="0"
   crs:Highlights2012="-20"
   crs:Shadows2012="+20"
   crs:Whites2012="0"
   crs:Blacks2012="+20"
   crs:Clarity2012="+4"
   crs:ConvertToGrayscale="False"
   crs:ToneCurveName2012="LF-C0-RIZZLE-DIZZLE"
   crs:CameraProfile="Adobe Standard"
   crs:HasSettings="True">
   <crs:Name>
    <rdf:Alt>
     <rdf:li xml:lang="x-default">4. RIZZLE DIZZLE » LOOKFILTER</rdf:li>
    </rdf:Alt>
   </crs:Name>
   <crs:ShortName>
    <rdf:Alt>
     <rdf:li xml:lang="x-default"/>
    </rdf:Alt>
   </crs:ShortName>
   <crs:SortName>
    <rdf:Alt>
     <rdf:li xml:lang="x-default"/>
    </rdf:Alt>
   </crs:SortName>
   <crs:Group>
    <rdf:Alt>
     <rdf:li xml:lang="x-default">C0. FREE LOOKFILTER COLLECTION</rdf:li>
    </rdf:Alt>
   </crs:Group>
   <crs:Description>
    <rdf:Alt>
     <rdf:li xml:lang="x-default"/>
    </rdf:Alt>
   </crs:Description>
   <crs:ToneCurvePV2012>
    <rdf:Seq>
     <rdf:li>0, 0</rdf:li>
     <rdf:li>59, 54</rdf:li>
     <rdf:li>199, 198</rdf:li>
     <rdf:li>255, 255</rdf:li>
    </rdf:Seq>
   </crs:ToneCurvePV2012>
   <crs:ToneCurvePV2012Red>
    <rdf:Seq>
     <rdf:li>0, 0</rdf:li>
     <rdf:li>37, 17</rdf:li>
     <rdf:li>62, 38</rdf:li>
     <rdf:li>125, 126</rdf:li>
     <rdf:li>185, 203</rdf:li>
     <rdf:li>255, 255</rdf:li>
    </rdf:Seq>
   </crs:ToneCurvePV2012Red>
   <crs:ToneCurvePV2012Green>
    <rdf:Seq>
     <rdf:li>0, 0</rdf:li>
     <rdf:li>42, 20</rdf:li>
     <rdf:li>67, 42</rdf:li>
     <rdf:li>121, 119</rdf:li>
     <rdf:li>183, 201</rdf:li>
     <rdf:li>255, 251</rdf:li>
    </rdf:Seq>
   </crs:ToneCurvePV2012Green>
   <crs:ToneCurvePV2012Blue>
    <rdf:Seq>
     <rdf:li>0, 0</rdf:li>
     <rdf:li>44, 15</rdf:li>
     <rdf:li>69, 36</rdf:li>
     <rdf:li>123, 113</rdf:li>
     <rdf:li>191, 200</rdf:li>
     <rdf:li>255, 240</rdf:li>
    </rdf:Seq>
   </crs:ToneCurvePV2012Blue>
   <crs:Look
    crs:Name=""/>
  </rdf:Description>
 </rdf:RDF>
</x:xmpmeta>
