darktable/Silver Screen.xmp
<x:xmpmeta xmlns:x="adobe:ns:meta/" x:xmptk="Adobe XMP Core 5.6-c140 79.160451, 2017/05/06-01:08:21        ">
 <rdf:RDF xmlns:rdf="http://www.w3.org/1999/02/22-rdf-syntax-ns#">
  <rdf:Description rdf:about=""
    xmlns:crs="http://ns.adobe.com/camera-raw-settings/1.0/"
   crs:PresetType="Normal"
   crs:Cluster=""
   crs:UUID="464959F5F59C0C687CBE6FA8DDC83908"
   crs:SupportsAmount="False"
   crs:SupportsColor="True"
   crs:SupportsMonochrome="True"
   crs:SupportsHighDynamicRange="True"
   crs:SupportsNormalDynamicRange="True"
   crs:SupportsSceneReferred="True"
   crs:SupportsOutputReferred="True"
   crs:CameraModelRestriction=""
   crs:Copyright=""
   crs:ContactInfo=""
   crs:Version="11.4"
   crs:ProcessVersion="6.7"
   crs:WhiteBalance="As Shot"
   crs:Sharpness="25"
   crs:LuminanceSmoothing="0"
   crs:ColorNoiseReduction="25"
   crs:ShadowTint="0"
   crs:RedHue="0"
   crs:RedSaturation="-25"
   crs:GreenHue="0"
   crs:GreenSaturation="+25"
   crs:BlueHue="0"
   crs:BlueSaturation="-35"
   crs:GrayMixerRed="+10"
   crs:GrayMixerOrange="-10"
   crs:GrayMixerYellow="0"
   crs:GrayMixerGreen="-20"
   crs:GrayMixerAqua="0"
   crs:GrayMixerBlue="0"
   crs:GrayMixerPurple="+20"
   crs:GrayMixerMagenta="+10"
   crs:SplitToningShadowHue="0"
   crs:SplitToningShadowSaturation="0"
   crs:SplitToningHighlightHue="0"
   crs:SplitToningHighlightSaturation="0"
   crs:SplitToningBalance="0"
   crs:ParametricShadows="-15"
   crs:ParametricDarks="-42"
   crs:ParametricLights="+55"
   crs:ParametricHighlights="-22"
   crs:ParametricShadowSplit="10"
   crs:ParametricMidtoneSplit="48"
   crs:ParametricHighlightSplit="79"
   crs:SharpenRadius="+1.0"
   crs:SharpenDetail="25"
   crs:SharpenEdgeMasking="0"
   crs:PostCropVignetteAmount="0"
   crs:GrainAmount="45"
   crs:GrainSize="15"
   crs:GrainFrequency="100"
   crs:ColorNoiseReductionDetail="50"
   crs:ColorNoiseReductionSmoothness="50"
   crs:Exposure2012="0.00"
   crs:Contrast2012="0"
   crs:Highlights2012="-20"
   crs:Shadows2012="+65"
   crs:Whites2012="-20"
   crs:Blacks2012="+10"
   crs:Clarity2012="-10"
   crs:ConvertToGrayscale="True"
   crs:OverrideLookVignette="False"
   crs:ToneCurveName2012="Neopan 400 +++"
   crs:CameraProfile="Adobe Standard"
   crs:HasSettings="True">
   <crs:Name>
    <rdf:Alt>
     <rdf:li xml:lang="x-default">Silver Screen - PresetLove</rdf:li>
    </rdf:Alt>
   </crs:Name>
   <crs:ShortName>
    <rdf:Alt>
     <rdf:li xml:lang="x-default"/>
    </rdf:Alt>
   </crs:ShortName>
   <crs:SortName>
    <rdf:Alt>
     <rdf:li xml:lang="x-default"/>
    </rdf:Alt>
   </crs:SortName>
   <crs:Group>
    <rdf:Alt>
     <rdf:li xml:lang="x-default"># PRESETLOVE Presets</rdf:li>
    </rdf:Alt>
   </crs:Group>
   <crs:Description>
    <rdf:Alt>
     <rdf:li xml:lang="x-default"/>
    </rdf:Alt>
   </crs:Description>
   <crs:ToneCurvePV2012>
    <rdf:Seq>
     <rdf:li>0, 54</rdf:li>
     <rdf:li>84, 81</rdf:li>
     <rdf:li>142, 137</rdf:li>
     <rdf:li>206, 206</rdf:li>
     <rdf:li>255, 240</rdf:li>
    </rdf:Seq>
   </crs:ToneCurvePV2012>
   <crs:ToneCurvePV2012Red>
    <rdf:Seq>
     <rdf:li>0, 0</rdf:li>
     <rdf:li>255, 255</rdf:li>
    </rdf:Seq>
   </crs:ToneCurvePV2012Red>
   <crs:ToneCurvePV2012Green>
    <rdf:Seq>
     <rdf:li>0, 0</rdf:li>
     <rdf:li>255, 255</rdf:li>
    </rdf:Seq>
   </crs:ToneCurvePV2012Green>
   <crs:ToneCurvePV2012Blue>
    <rdf:Seq>
     <rdf:li>0, 0</rdf:li>
     <rdf:li>255, 255</rdf:li>
    </rdf:Seq>
   </crs:ToneCurvePV2012Blue>
   <crs:Look
    crs:Name=""/>
  </rdf:Description>
 </rdf:RDF>
</x:xmpmeta>
